!!!OTL: Der schwatzhafte Junggeselle
!!!OTL-incipit:Es waren mal drei Gesellen,
!!!ARE: Europa, Mitteleuropa, Deutschland / France, Lothringen, Fremersdorf
!!!YOR: 6, S. 312
!!    1932 gedruckt in Metz
!!!SCT: Q0139S
!!!TXL: @@DE
!!!YEM: Copyright 1995, estate of Helmut Schaffrath.
**kern	**text
*ICvox	*
!! Mixed meters:  3/8; 4/4
*M3/8	*
*k[f#]	*
*G:	*
!LO:TX:a:t=229 Lothringen	!
{8d	Es
=1	=1
8gL	wa-
8f#	-ren
8eJ	mal
=2	=2
(8aL	drei
8b)	.
8aJ	Ge-
=3	=3
8gL	-sel-
8dJ}	-len,
{8d	sie
=4	=4
8gL	konn-
8f#	.
8gJ	-ten,
=5	=5
(8aL	was
8b)	.
8aJ	sie
=6	=6
8gL	woll-
8dJ}	-ten;
{8b	Sie
=7	=7
*M4/4	*
8.gL	spiel-
16bJ	-ten
8bL	al-
8bJ	-le
4.b	drei
8g	auf
=8	=8
8gL	ei-
8bJ	-nem
8ddL	Li-
8bJ	-lien-
4.a}	-blatt,
{8g	bis
=9	=9
8.f#L	daß
16aJ	der
8aL	ein'
16a	o-
16aJ	-der
(8aL	an-
8ddJ)	.
8ddL	-dre
8ccJ	das
=10	=10
8bL	Spiel
8bJ	ge-
8aL	-won-
8aJ	-nen
4g	hat.
8r}	.
==	==
!!!AGN: Ballade, Indiskretion, verweigerter Beischlaf
!!!ONB: ESAC (Essen Associative Code) Database: BALLADE
!!!AMT: irregular
!!!AIN: vox
!!!EED: Helmut Schaffrath
!!!EEV: 1.0
!!!source: Deutsche Volkslieder mit ihren Melodien Balladen. Herausgegeben vom Deutschen Volksliedarchiv. Sechster Band. Freiburg/Breisgau 1976.
!!!page: 312
!!!ENC: Anna Maria Matuszewska
!!!EEV: 2025/03/07
*-	*-
